X:186 
T:Round the World (reel)
S:Donnelly < T. Gunn
F:file ID: cre.4/186round_w
B:CRE4.187 (Morthimpeall an Domhain)
L:1/8
%Q:180
M:4/4
R:reel
K:Em
BEE2 BAFA|BE~E2 BEdE|BE~E2 BAFB|AFDF (3ABA FA|
"5"BEE2 BAFA|BE~E2 B^cdA|BE~E2 BAFB|AFDF ABAF ||
"9"EDEF DEFD|E2 EB B2 AF|EDEF D2DB|AFDF ABAF|
"13"EDEF DEFD|E2 EB B2 AF|EDEF DEFB|AFDF A2 FA ||
"17"B^cde dcBA|B^cde fgaf|d3^c dcde|fae^c dcBA|
"21"B^cde dcBA|B^cde fgaf|d3^c dfag|fge^c dcBA||\
"last time"E8||

%%%

